kora/mimetypes/scalable/text-x-vsrc.svg

<svg clip-rule="evenodd" fill-rule="evenodd" stroke-linejoin="round" stroke-miterlimit="2" viewBox="0 0 48 48" xmlns="http://www.w3.org/2000/svg" xmlns:xlink="http://www.w3.org/1999/xlink"><linearGradient id="a" gradientTransform="matrix(0 -49.619 49.619 0 615.22 51.088)" gradientUnits="userSpaceOnUse" x1="0" x2="1" y1="0" y2="0"><stop offset="0" stop-color="#484848"/><stop offset="1" stop-color="#7f7f7f"/></linearGradient><path d="m54 3.146c0-.926-.751-1.677-1.677-1.677h-34.705c-2.02 0-3.958.803-5.387 2.231-1.428 1.429-2.231 3.367-2.231 5.387v45.295c0 2.02.803 3.958 2.231 5.387 1.429 1.428 3.367 2.231 5.387 2.231h28.764c2.02 0 3.958-.803 5.387-2.231 1.428-1.429 2.231-3.367 2.231-5.387z" fill="url(#a)" transform="matrix(.75 0 0 .75 0 .199125)"/><g fill-rule="nonzero" transform="translate(1.52446 2.69913)"><path d="m25.93 21.122c-.548.14-1.01.357-1.446.656-.539.365-.934.789-1.139 1.034-.145.175-.285.36-.415.559-.019.031-.054.048-.09.044-.902-.121-1.723-.184-2.464-.188-.802-.006-1.725.058-2.538.295-.175.05-.344.103-.5.171-.149.065-.265-.007-.367-.109-.13-.134-.22-.299-.33-.448-.585-.739-1.641-1.751-2.892-1.636 0 0-.687.083-1.374.562-.688.48-1.375 1.355-1.375 2.938 0 1.515.387 2.266.723 2.889.062.115.071.206.075.267.011.064-.021.19-.021.19-.127.46-.217.914-.276 1.364 0 0-.134.833-.056 1.997 0 0 .085 1.116.291 1.966.387 1.738 1.244 3.514 1.954 5.327.162.412.289 1 .31 1.573.015.405-.121.94-.332 1.34-.507.957-1.538 1.326-2.487 1.73-.054.016-.101.054-.125.082-.057.067-.056.275-.056.275h22v-2c-.254-4.186-.522-6.092-.837-7.78-.215-1.096-.515-2.313-.865-3.428-.549-1.748-.075-4.545-.772-6.805-.116-.406-.469-1.265-1.037-1.861-.42-.444-.797-.671-1.199-.848-.406-.208-.8-.271-1.29-.278-.458-.007-.714.062-1.07.122z" fill="#8b8b8b"/><path d="m22.529 30.004c-.052.006-.103.02-.152.041-.868.381-1.562.992-2.082 1.838-.563.91-.32 1.466.73 1.666 1.745.332 3.93-2.213 1.803-3.481-.089-.053-.193-.076-.299-.064zm-9.093.617c-.031-.002-.061 0-.09.008-.362.099-.454.932-.205 1.861.249.93.746 1.605 1.109 1.508.362-.099.454-.932.205-1.861-.227-.845-.662-1.493-1.019-1.516zm2.803 5.463c-.314.001-.629.049-.946.143-.154.042-.268.168-.293.322-.323 1.883 2.256 1.889 2.918.254.055-.131-.002-.282-.129-.344-.511-.252-1.028-.377-1.55-.375z" fill="#2e2e2e"/><path d="m27 35c-.564.017-.697.643-1.071.926-1.94 1.98-4.198 3.044-6.98 3.368-1.092.134-2.065.052-3.11-.27-.486-.146-.839.445-.839.976 0 1.572 1 4 1 4h13v-1c-.086-2.699-1-8-2-8z" fill="#696969"/></g></svg>

<svg xmlns="http://www.w3.org/2000/svg" width="48" height="48" version="1.1">
 <path style="opacity:0.2" d="m10 5c-1.108 0-2 0.892-2 2v36c0 1.108 0.892 2 2 2h28c1.108 0 2-0.892 2-2v-26l-12-12z"/>
 <path style="fill:#4f4f4f" d="m10 4c-1.108 0-2 0.892-2 2v36c0 1.108 0.892 2 2 2h28c1.108 0 2-0.892 2-2v-26l-10-2-2-10z"/>
 <path style="opacity:0.2" d="m40 17-12-12v10c0 1.108 0.892 2 2 2z"/>
 <path style="fill:#696969" d="m40 16-12-12v10c0 1.108 0.892 2 2 2z"/>
 <path style="fill:#ffffff;opacity:0.1" d="m10 4c-1.108 0-2 0.892-2 2v1c0-1.108 0.892-2 2-2h18v-1h-18z"/>
 <path style="fill:#fafafa" d="M 25.93,21.122 C 25.382,21.262 24.92,21.479 24.484,21.778 23.945,22.143 23.55,22.567 23.345,22.812 23.2,22.987 23.06,23.172 22.93,23.371 22.911,23.402 22.876,23.419 22.84,23.415 21.938,23.294 21.117,23.231 20.376,23.227 19.574,23.221 18.651,23.285 17.838,23.522 17.663,23.572 17.494,23.625 17.338,23.693 17.189,23.758 17.073,23.686 16.971,23.584 16.841,23.45 16.751,23.285 16.641,23.136 16.056,22.397 15,21.385 13.749,21.5 13.749,21.5 13.062,21.583 12.375,22.062 11.687,22.542 11,23.417 11,25 11,26.515 11.387,27.266 11.723,27.889 11.785,28.004 11.794,28.095 11.798,28.156 11.809,28.22 11.777,28.346 11.777,28.346 11.65,28.806 11.56,29.26 11.501,29.71 11.501,29.71 11.367,30.543 11.445,31.707 11.445,31.707 11.53,32.823 11.736,33.673 12.123,35.411 12.98,37.187 13.69,39 13.852,39.412 13.979,40 14,40.573 14.015,40.978 13.879,41.513 13.668,41.913 13.161,42.87 12.13,43.239 11.181,43.643 11.127,43.659 11.08,43.697 11.056,43.725 10.999,43.792 11,44 11,44 H 33 V 42 C 32.746,37.814 32.478,35.908 32.163,34.22 31.948,33.124 31.648,31.907 31.298,30.792 30.749,29.044 31.223,26.247 30.526,23.987 30.41,23.581 30.057,22.722 29.489,22.126 29.069,21.682 28.692,21.455 28.29,21.278 27.884,21.07 27.49,21.007 27,21 26.542,20.993 26.286,21.062 25.93,21.122 Z"/>
 <path d="M 22.529,30.004 C 22.477,30.01 22.426,30.024 22.377,30.045 21.509,30.426 20.815,31.037 20.295,31.883 19.732,32.793 19.975,33.349 21.025,33.549 22.77,33.881 24.955,31.336 22.828,30.068 22.739,30.015 22.635,29.992 22.529,30.004 Z M 13.436,30.621 C 13.405,30.619 13.375,30.621 13.346,30.629 12.984,30.728 12.892,31.561 13.141,32.49 13.39,33.42 13.887,34.095 14.25,33.998 14.612,33.899 14.704,33.066 14.455,32.137 14.228,31.292 13.793,30.644 13.436,30.621 Z M 16.239,36.084 C 15.925,36.085 15.61,36.133 15.293,36.227 15.139,36.269 15.025,36.395 15,36.549 14.677,38.432 17.256,38.438 17.918,36.803 17.973,36.672 17.916,36.521 17.789,36.459 17.278,36.207 16.761,36.082 16.239,36.084 Z"/>
 <path style="fill:#cccccc" d="M 27,35 C 26.436,35.017 26.303,35.643 25.929,35.926 23.989,37.906 21.731,38.97 18.949,39.294 17.857,39.428 16.884,39.346 15.839,39.024 15.353,38.878 15,39.469 15,40 15,41.572 16,44 16,44 H 29 V 43 C 28.914,40.301 28,35 27,35 Z"/>
</svg>
